X:19
T:Miss Farquharson (of Invercauld's) Strathspey
C:"By Mr. Marshall"
S:Petrie's Second Collection of Strathspey Reels and Country Dances &c.
Z:Steve Wyrick , 6/5/04
N:Petrie's Second Collection, page 7
L:1/8
M:C
R:Strathspey
K:F
F|C<FF>G A>GA<F|D<GG>A B>AB<c   |d<fc>A G>FG<A|CFEG    F3    :|
c|f<cc>A f>cf<a|f<cf>a g>fg<a   |f<cc<A f>ba<g|f<dTc>A G3g    |
  f<cc<A f>cf<a|f<cf>a Tg>(fg<a)|f<cc<A f>ba>g|f<dc<A  G>FG<A|]
